src/assets/rocket.svg

<?xml version="1.0" encoding="UTF-8"?>
<svg width="39px" height="39px" viewBox="0 0 39 39" version="1.1" xmlns="http://www.w3.org/2000/svg" xmlns:xlink="http://www.w3.org/1999/xlink">
    <!-- Generator: Sketch 50 (54983) - http://www.bohemiancoding.com/sketch -->
    <title>Group 4</title>
    <desc>Created with Sketch.</desc>
    <defs></defs>
    <g id="Page-1" stroke="none" stroke-width="1" fill="none" fill-rule="evenodd">
        <g id="SERVICES" transform="translate(-943.000000, -447.000000)" fill="#F7007D">
            <g id="Group-4" transform="translate(943.000000, 447.000000)">
                <path d="M32.5974204,32.0071185 L35.4435702,29.1614825 L36.1548562,29.8736459 L33.3097124,32.7182761 L32.5974204,32.0071185 Z M31.1748484,24.8945373 L31.8871405,25.6056948 L29.0409906,28.450325 L28.3297046,27.7391674 L31.1748484,24.8945373 Z M34.0209983,27.7391674 L31.1748484,30.5848035 L30.4635625,29.87264 L33.3097124,27.0280099 L34.0209983,27.7391674 Z M36.8661421,27.7391674 L35.4435702,26.3168524 L34.7322843,25.6056948 L33.3097124,24.1833798 L31.1748484,22.0499071 L25.4835548,27.7391674 L33.3097124,35.5629062 L39,29.8736459 L36.8661421,27.7391674 Z M9.12196569,2.84563603 L9.83325164,3.55679356 L6.98810783,6.40142371 L6.27581581,5.69026617 L9.12196569,2.84563603 Z M11.9671095,5.69026617 L9.12196569,8.5359022 L8.41067974,7.82373878 L11.2558236,4.97910864 L11.9671095,5.69026617 Z M11.2558236,10.6693748 L10.5445376,9.95821727 L13.3896814,7.11258124 L14.1019734,7.82373878 L11.2558236,10.6693748 Z M16.9471172,7.82373878 L12.6783955,3.55578768 L11.2558236,2.13347261 L9.12196569,0 L3.430672,5.69026617 L11.2558236,13.514005 L16.9471172,7.82373878 Z M21.2057784,14.5309502 C21.991513,13.7453575 23.2661937,13.7453575 24.0519283,14.5309502 C24.8366568,15.3165429 24.8366568,16.5909935 24.0519283,17.3765862 C23.2661937,18.161173 21.991513,18.161173 21.2057784,17.3765862 C20.4200439,16.5909935 20.4200439,15.3165429 21.2057784,14.5309502 Z M9.14611118,35.5890591 L3.41155682,29.8545342 L9.13705662,27.0430981 L11.9580549,29.864593 L9.14611118,35.5890591 Z M0,29.2882235 L9.71353025,39 L14.3987618,29.4592232 L9.54249968,24.6038378 L0,29.2882235 Z M30.6023991,16.9329929 L19.0809751,28.450325 L10.5445376,19.9154287 L22.0639494,8.39809656 L30.7683993,8.23715568 L30.6023991,16.9329929 Z M32.8197601,6.18717115 L21.215839,6.40142371 L7.69939378,19.9154287 L19.0809751,31.295961 L32.5984264,17.7819561 L32.8197601,6.18717115 Z" id="Fill-2"></path>
            </g>
        </g>
    </g>
</svg>

<svg width="39" height="39" xmlns="http://www.w3.org/2000/svg"><path d="M32.597 32.007l2.847-2.846.71.713-2.844 2.844-.713-.71zm-1.422-7.112l.712.71-2.846 2.845-.711-.71 2.845-2.845zm2.846 2.844l-2.846 2.846-.711-.712 2.846-2.845.711.711zm2.845 0l-1.422-1.422-.712-.711-1.422-1.423-2.135-2.133-5.691 5.69 7.826 7.823 5.69-5.69-2.134-2.134zM9.122 2.846l.711.71-2.845 2.845-.712-.71 2.846-2.845zm2.845 2.844L9.122 8.536l-.711-.712 2.845-2.845.711.711zm-.711 4.98l-.711-.712 2.845-2.845.712.71-2.846 2.846zm5.691-2.846l-4.269-4.268-1.422-1.423L9.122 0 3.431 5.69l7.825 7.824 5.691-5.69zm4.259 6.707a2.013 2.013 0 0 1 2.846 2.846 2.012 2.012 0 1 1-2.846-2.846zM9.146 35.589l-5.734-5.734 5.725-2.812 2.821 2.822-2.812 5.724zM0 29.29L9.714 39l4.685-9.54-4.857-4.856L0 29.288zm30.602-12.356L19.081 28.45l-8.536-8.535L22.064 8.398l8.704-.16-.166 8.695zM32.82 6.187l-11.604.214L7.699 19.915l11.382 11.381 13.517-13.514.222-11.595z" fill="#F7007D" fill-rule="evenodd"/></svg>
